!!!OTL: Die Schlangenkoechin Kind, wo bist du hingewesen?
!!!ARE: Europa, Mitteleuropa, Deutschland (BRD), Niedersachsen
!!!YOR: 4, S. 210
!!    1936 gedruckt in Leipzig
!!!SCT: Q0079R
!!!YEM: Copyright 1995, estate of Helmut Schaffrath.
**kern
*ICvox
*Ivox
*M3/4
*k[f#]
*G:
{8d
8d
=1
4g
4g
8a
8cc
=2
4b
4g}
{4b
=3
4.a
8g
8f#
8a
=4
4g
4r}
{4d
=5
4g
4g
8a
8cc
=6
8b
8a
4g}
{4b
=7
4.a
8g
4f#
=8
4g
4r}
==
!!!AGN: Ballade, Mord; Reigen - Tanz, antiphonal
!! Zweite und vierte Zeile = Refrain.
!!!ONB: ESAC (Essen Associative Code) Database: BALLADE
!!!AMT: simple triple
!!!AIN: vox
!!!EED: Helmut Schaffrath
!!!EEV: 1.0
*-
